X: 1
T: Three Around Three
C: Trad
R: Hornpipe (Not Swung)
M: 4/4
L: 1/8
K: G
Z: ABC transcription by Verge Roller
r: 32
|: "G" d2 BA G2 G2 | "D" A2 BA "G" G2 D2 | "C" EDEF "G" G2 AB | "Am" c2 B2 "D" B2 A2 |
"G" d2 BA G2 G2 | "D" A2 BA "G" G2 D2 | "C" EDEF "G" G2 Ac | "D" B2 A2 "G" G2 z2 :|
|: "G" d2 ef gfed | "C" e2 e2 egfe | "G" d2 B2 B2 AG | "D" FGAB A4 |
"G" d2 ef gfed | "C" e2 e2 e2 d2 | "Am" efge "D" fgaf | "G" g4 g3 z :|
